X: 1
T: My Cape Breton Home
M: 3/4
L: 1/8
R: waltz
K: Gmaj
d2|:g3g fg|a2 f2 d2|c3c Bc|d2 B2 G2|
g3g fg|a2 f2 d2|c3c Bc|d f3 fg|
g3 g fg|a2 f2 d2|c3c Bc|d2 B2 G2|
Ec3 cB|A3G F2|G4 GF|1 G3 ABd:|2 G4 GE||
|:D3G B2|c3c Bc|d2 B2 G2|A G3 GE|
D3G B2|c3c Bc|dg3 gf|d3 c AF|
D3G B2|c3c Bc|d2 B2 G2|A G3 GE|
D g3 fd|c3A FA|G4 GF|1 G4 GE:|2 G4||
